X: 16754
T: Hare In The Corn, The
R: jig
M: 6/8
K: Dmajor
M:12/8
F2 A AFA BcA ABA|G2 E EDE FAD D2 G|
FAA AFA B2 A AFA|Bcd e2 f d2 A B/c/BA|
F2 A AFA BAA ABA|G2 E EDE FAD D2 E|
FAA AFA B2 A AFA|Bcd ecA d3 d2 e||
f2 f fed e2 e ede|f2 f fef a3 b2 a|
fga fed e2 e ecA|Bcd ecA d3 d2 e|
f2 f fed efe ede|f2 f fef a3 b2 a|
fga fed e2 e ecA|Bcd ecA d2 A B/c/BA||

